X: 3
T: O Canada
C: C. Lavalee
P: piffero primo a0174
O: Canada
%R: march
F: http://ancients.sudburymuster.org/mus/col/pdf/anthemsF.pdf
Z: 2020 John Chambers <jc:trillian.mit.edu>
M: 4/4
L: 1/8
K: G
|:\
B4 d3d | G6 A2 | B2c2 d2e2 | A6 z2 |\
B4 ^c3c | d6 e2 | f2f2 e2e2 | d6 A>B |\
c3B A2B>c |
d3c B2c>d | e2d2 c2B2 | A6 A>B |\
c3B A2B>c | d3cB2B2 | A2d2 d^cBc | d8 |\
B4 d3d | G6 z2 |
c4 e3e | A6 z2 |\
d4 ^d3d | e2c2 B2A2 | G4 A4 | B4 z4 |\
d4 g3g | e2c2 B2A2 | d4 F4 | G8 :|

% %sep 1 1 200
% %center - - - - - - - - - -
% Whatever we want at the bottom of each set belongs here.
